other/patient_portal.svg

<svg xmlns="http://www.w3.org/2000/svg" viewBox="0 0 48 48"><defs><style>.a{fill:none;stroke:#fff;stroke-linecap:round;stroke-linejoin:round;}</style></defs>
  <path class="a"
     d="M38.685496 21.863005C38.685496 21.863005 37.145169 21.824605 37.145169 21.824605C36.242887 21.802115 35.515995 21.097993 35.515995 20.195431C35.515995 20.195431 35.515995 18.491717 35.515995 18.491717"
     />
  <path class="a"
     d="M32.242114 21.933803C32.242114 21.933803 33.782442 21.972203 33.782442 21.972203C34.684724 21.994693 35.411615 22.698815 35.411615 23.601377C35.411615 23.601377 35.411615 25.305091 35.411615 25.305091"
      />
  <path class="a"
     d="M7.303105624 22.82138346C7.303105624 22.82138346 7.303105624 27.28184122 7.303105624 27.28184122C7.303105624 27.28184122 9.533334504 27.28184122 9.533334504 27.28184122"
     />
  <line
     class="a"
     x1="24.95355"
     y1="27.354174"
     x2="27.183779"
     y2="27.354174"
      />
  <line
     class="a"
     x1="24.95355"
     y1="22.893715"
     x2="27.183779"
     y2="22.893715"
      />
  <line
     class="a"
     x1="24.95355"
     y1="25.123945"
     x2="26.403202"
     y2="25.123945"
      />
  <line
     class="a"
     x1="24.95355"
     y1="22.893715"
     x2="24.95355"
     y2="27.354174"
     />
  <path class="a"
     d="M19.111419824 27.28711122C19.111419824 27.28711122 19.111419824 22.82665346 19.111419824 22.82665346C19.111419824 22.82665346 21.341648704 27.28711122 21.341648704 27.28711122C21.341648704 27.28711122 23.571877584 22.82665346 23.571877584 22.82665346C23.571877584 22.82665346 23.571877584 27.28711122 23.571877584 27.28711122"
      />
  <path class="a"
     d="M14.863828 22.857431C14.863828 22.857431 17.818874 27.317886 17.818874 27.317886"
      />
  <path class="a"
     d="M17.818874 22.857431C17.818874 22.857431 14.863828 27.317886 14.863828 27.317886"
     />
  <path
     d="M28.515819 27.263585C28.515819 27.263585 28.515819 22.803128 28.515819 22.803128C28.515819 22.803128 29.240643 22.803128 29.240643 22.803128C30.467269 22.803128 31.470872 23.80673 31.470872 25.033356C31.470872 25.033356 31.470872 25.033356 31.470872 25.033356C31.470872 26.259982 30.467269 27.263585 29.240643 27.263585C29.240643 27.263585 28.515819 27.263585 28.515819 27.263585"
      class="a" />
  <path
     d="M10.726289 22.857433C10.726289 22.857433 10.726289 25.812486 10.726289 25.812486C10.726289 26.648822 11.395358 27.31789 12.175938 27.31789C12.956518 27.31789 13.625587 26.648822 13.625587 25.812486C13.625587 25.812486 13.625587 22.857433 13.625587 22.857433"
     class="a" />
</svg>

<svg xmlns="http://www.w3.org/2000/svg" viewBox="0 0 48 48"><defs><style>.a{fill:none;stroke:#fff;stroke-linecap:round;stroke-linejoin:round}</style></defs><path class="a" d="m38.685 21.863-1.54-.038c-.902-.023-1.629-.727-1.629-1.63v-1.703M32.242 21.934l1.54.038c.903.023 1.63.727 1.63 1.63v1.703M7.303 22.821v4.46h2.23M24.954 27.354h2.23M24.954 22.894h2.23M24.954 25.124h1.449M24.954 22.894v4.46M19.111 27.287v-4.46l2.23 4.46 2.23-4.46v4.46M14.864 22.857l2.955 4.46M17.819 22.857l-2.955 4.46M28.516 27.264v-4.46h.725a2.237 2.237 0 0 1 2.23 2.23s0 0 0 0a2.237 2.237 0 0 1-2.23 2.23h-.725M10.726 22.857v2.955c0 .837.67 1.506 1.45 1.506.78 0 1.45-.67 1.45-1.506v-2.955"/></svg>
